public/icon/16/puzzle.svg

<svg width="16" height="16" viewBox="0 0 16 16" fill="none" xmlns="http://www.w3.org/2000/svg">
<path d="M2 2.5C2 2.22386 2.22386 2 2.5 2H11.3889C11.665 2 11.8889 2.22386 11.8889 2.5V5.14508C11.8889 5.52749 12.3129 5.7867 12.6825 5.68861C13.6042 5.44398 15 5.48823 15 8C15 10.5118 13.6042 10.556 12.6825 10.3114C12.3129 10.2133 11.8889 10.4725 11.8889 10.8549V13.5C11.8889 13.7761 11.665 14 11.3889 14H2.5C2.22386 14 2 13.7761 2 13.5V10.7676C2 10.4063 2.3794 10.1503 2.73431 10.2184C3.65415 10.3948 5.11111 10.3096 5.11111 8C5.11111 5.69038 3.65415 5.60523 2.73431 5.78162C2.3794 5.84968 2 5.59374 2 5.23236V2.5Z" stroke="#092E24" stroke-width="2" stroke-miterlimit="10" stroke-linecap="round" stroke-linejoin="round"/>
</svg>

<svg viewBox="0 0 16 16">
  <g class="puzzle">
    <path d="M2 2.5a.5.5 0 0 1 .5-.5h8.889a.5.5 0 0 1 .5.5v2.645c0 .382.424.642.793.544C13.604 5.444 15 5.489 15 8c0 2.512-1.396 2.556-2.318 2.311-.37-.098-.793.162-.793.544V13.5a.5.5 0 0 1-.5.5H2.5a.5.5 0 0 1-.5-.5v-2.732c0-.362.38-.618.734-.55.92.177 2.377.092 2.377-2.218S3.654 5.605 2.734 5.782C2.38 5.85 2 5.594 2 5.232V2.5Z" class="fill-(--icon-fill) stroke-current stroke-2 sl-r"/>
  </g>
</svg>
